assets/images/ywc18/icon/twitter.svg

<svg width="64" height="53" viewBox="0 0 64 53" fill="none" xmlns="http://www.w3.org/2000/svg">
<path d="M43.2983 0.90332C35.9261 0.90332 29.931 6.89835 29.931 14.2705C29.931 14.7136 30.0418 15.1469 30.0851 15.5803C20.9698 14.7087 12.909 10.3172 7.43403 3.59988C7.17882 3.27725 6.78397 3.1039 6.36985 3.1328C5.96055 3.16169 5.59459 3.39764 5.39235 3.75397C4.2415 5.73305 3.5818 8.01068 3.5818 10.4568C3.5818 13.4182 4.64117 16.1292 6.27836 18.3539C5.96055 18.2143 5.61385 18.1372 5.31531 17.9687C4.9349 17.7664 4.47745 17.7761 4.10667 17.9976C3.73589 18.2191 3.50957 18.6187 3.50476 19.0473V19.2014C3.50476 23.7422 5.85462 27.6859 9.32162 30.1032C9.2831 30.0984 9.24458 30.1128 9.20605 30.1032C8.78231 30.031 8.35375 30.1802 8.06965 30.5029C7.78555 30.8255 7.69406 31.2733 7.81925 31.6826C9.19642 35.9634 12.7116 39.233 17.0646 40.4272C13.5976 42.4881 9.57683 43.7016 5.23826 43.7016C4.29928 43.7016 3.39882 43.6534 2.50318 43.5475C1.92535 43.4704 1.37159 43.8075 1.17898 44.3564C0.981552 44.9054 1.19824 45.5169 1.69421 45.8203C7.25587 49.3884 13.8576 51.4831 20.9553 51.4831C32.4591 51.4831 41.4829 46.6774 47.5357 39.8108C53.5885 32.9442 56.7425 24.0263 56.7425 15.6959C56.7425 15.3444 56.7136 15.0025 56.704 14.6558C58.9624 12.9271 60.98 10.8998 62.5594 8.53073C62.8724 8.07328 62.8387 7.46174 62.4775 7.03799C62.1212 6.61425 61.5193 6.48423 61.0185 6.72018C60.3829 7.00428 59.6413 7.03318 58.9768 7.25949C59.8532 6.08938 60.6044 4.82778 61.057 3.40727C61.2111 2.92092 61.0426 2.38643 60.6429 2.06862C60.2432 1.75563 59.6847 1.7171 59.2465 1.98194C57.1422 3.2291 54.8116 4.10548 52.351 4.63998C49.9626 2.40569 46.8182 0.90332 43.2983 0.90332ZM43.2983 3.36875C46.4426 3.36875 49.2836 4.71221 51.2724 6.83575C51.5709 7.14393 52.0091 7.27394 52.428 7.18245C54.0363 6.86464 55.5628 6.39756 57.0507 5.79565C56.1936 6.95132 55.1342 7.93845 53.8919 8.68482C53.3285 8.95929 53.0636 9.60935 53.2707 10.2016C53.4729 10.7891 54.0893 11.131 54.7008 10.9962C55.9336 10.8469 57.0314 10.3461 58.2064 10.0331C57.1518 11.1743 55.9962 12.2048 54.7394 13.1149C54.3975 13.3653 54.2097 13.7698 54.2386 14.1935C54.2578 14.6943 54.2771 15.1903 54.2771 15.6959C54.2771 23.4003 51.3205 31.7645 45.6866 38.1544C40.0528 44.5442 31.7801 49.0176 20.9553 49.0176C16.0389 49.0176 11.397 47.9294 7.2029 46.0129C12.4034 45.6132 17.1994 43.7738 21.0709 40.7353C21.4754 40.4127 21.6343 39.8734 21.4706 39.3822C21.3069 38.8911 20.8542 38.554 20.339 38.5396C16.2749 38.4673 12.8705 36.103 11.0551 32.7612C11.1225 32.7612 11.1803 32.7612 11.2477 32.7612C12.466 32.7612 13.6698 32.6071 14.7918 32.299C15.3311 32.1401 15.7019 31.6393 15.6826 31.0759C15.6633 30.5125 15.2637 30.031 14.7147 29.9106C10.328 29.0246 7.03918 25.4516 6.27836 21.0119C7.52071 21.4405 8.79194 21.7776 10.1691 21.8209C10.7325 21.8546 11.2429 21.5031 11.4163 20.9686C11.5896 20.4341 11.3777 19.8466 10.901 19.5481C7.97334 17.5883 6.04723 14.2513 6.04723 10.4568C6.04723 9.05078 6.41319 7.76028 6.89472 6.52757C13.0583 13.293 21.6873 17.7857 31.4334 18.2769C31.8186 18.2961 32.1942 18.1372 32.4446 17.8435C32.695 17.5449 32.7913 17.1501 32.7046 16.7745C32.5168 15.9752 32.3965 15.1277 32.3965 14.2705C32.3965 8.23218 37.2599 3.36875 43.2983 3.36875Z" fill="#FF5D29" fill-opacity="1" stroke="#FF5D29" stroke-opacity="1" stroke-width="1.0545"/>
</svg>

<svg width="64" height="53" fill="none" xmlns="http://www.w3.org/2000/svg"><path d="M43.3.9c-7.37 0-13.37 6-13.37 13.37 0 .44.11.88.16 1.31A33.14 33.14 0 017.43 3.6a1.24 1.24 0 00-2.04.15 13.26 13.26 0 00-1.8 6.7c0 2.97 1.05 5.68 2.69 7.9-.32-.14-.67-.21-.96-.38a1.23 1.23 0 00-1.82 1.08v.15a13.3 13.3 0 005.82 10.9h-.11a1.23 1.23 0 00-1.4 1.58 13.4 13.4 0 009.25 8.75A23.03 23.03 0 012.5 43.55a1.23 1.23 0 00-.8 2.27 35.55 35.55 0 0019.26 5.66c11.5 0 20.52-4.8 26.58-11.67a37.1 37.1 0 009.2-24.11c0-.36-.03-.7-.04-1.04a25.82 25.82 0 005.86-6.13 1.23 1.23 0 00-1.54-1.81c-.64.28-1.38.31-2.04.54a13.08 13.08 0 002.08-3.85 1.24 1.24 0 00-1.81-1.43 23.1 23.1 0 01-6.9 2.66A13.27 13.27 0 0043.3.9zm0 2.47c3.14 0 5.98 1.34 7.97 3.47.3.3.74.43 1.16.34 1.6-.32 3.13-.78 4.62-1.38a10.97 10.97 0 01-3.16 2.88A1.23 1.23 0 0054.7 11c1.23-.15 2.33-.65 3.5-.97a23.42 23.42 0 01-3.46 3.08c-.34.26-.53.66-.5 1.08.02.5.04 1 .04 1.5 0 7.71-2.96 16.07-8.6 22.46-5.63 6.4-13.9 10.87-24.72 10.87-4.92 0-9.56-1.1-13.76-3 5.2-.4 10-2.25 13.87-5.28a1.23 1.23 0 00-.73-2.2 10.8 10.8 0 01-9.28-5.78h.19c1.22 0 2.42-.15 3.54-.46a1.24 1.24 0 00-.08-2.39 10.82 10.82 0 01-8.43-8.9c1.24.43 2.51.77 3.89.81a1.23 1.23 0 00.73-2.27 10.92 10.92 0 01-4.85-9.1c0-1.4.36-2.69.84-3.92a35.58 35.58 0 0024.54 11.75 1.23 1.23 0 001.27-1.5 10.88 10.88 0 0110.6-13.4z" fill="#FF5D29" stroke="#FF5D29" stroke-width="1.05"/></svg>
